app/images/check-green-solid.svg

<svg fill="none" height="20" viewBox="0 0 20 20" width="20" xmlns="http://www.w3.org/2000/svg"><g clip-rule="evenodd" fill-rule="evenodd"><path d="m.833374 10c0-5.0626 4.104056-9.166656 9.166626-9.166656 5.0626 0 9.1667 4.104056 9.1667 9.166656s-4.1041 9.1667-9.1667 9.1667c-5.06257 0-9.166626-4.1041-9.166626-9.1667z" fill="#28a745"/><path d="m14.4256 6.70245c.3255.32544.3255.85308 0 1.17852l-5.17257 5.41663c-.32543.3255-.85307.3255-1.17851 0l-2.5-2.5c-.32543-.3254-.32543-.85304 0-1.17848.32544-.32544.85308-.32544 1.17851 0l1.91075 1.91078 4.58332-4.82745c.3254-.32543.8531-.32543 1.1785 0z" fill="#fff"/></g></svg>

<svg width="20" height="20" viewBox="0 0 20 20" fill="none" xmlns="http://www.w3.org/2000/svg">
<path fill-rule="evenodd" clip-rule="evenodd" d="M0.833374 10C0.833374 4.9374 4.93743 0.833344 10 0.833344C15.0626 0.833344 19.1667 4.9374 19.1667 10C19.1667 15.0626 15.0626 19.1667 10 19.1667C4.93743 19.1667 0.833374 15.0626 0.833374 10Z" fill="#28A745"/>
<path fill-rule="evenodd" clip-rule="evenodd" d="M14.4256 6.70245C14.7511 7.02789 14.7511 7.55553 14.4256 7.88097L9.25303 13.2976C8.9276 13.6231 8.39996 13.6231 8.07452 13.2976L5.57452 10.7976C5.24909 10.4722 5.24909 9.94456 5.57452 9.61912C5.89996 9.29368 6.4276 9.29368 6.75303 9.61912L8.66378 11.5299L13.2471 6.70245C13.5725 6.37702 14.1002 6.37702 14.4256 6.70245Z" fill="white"/>
</svg>
